static/img/kroki/2419c078b330718b4d1df329fb27dd13.svg

<?xml version="1.0" encoding="us-ascii" standalone="no"?><svg xmlns="http://www.w3.org/2000/svg" xmlns:xlink="http://www.w3.org/1999/xlink" contentStyleType="text/css" height="252px" preserveAspectRatio="none" style="width:1016px;height:252px;" version="1.1" viewBox="0 0 1016 252" width="1016px" zoomAndPan="magnify"><defs/><g><!--class aws_ec2_network_interface--><g id="elem_aws_ec2_network_interface"><rect codeLine="22" fill="#3D176E" height="39.7891" id="aws_ec2_network_interface" rx="2.5" ry="2.5" style="stroke:#000D19;stroke-width:0.5;" width="275" x="145" y="206.58"/><ellipse cx="160" cy="226.4745" fill="#ADD1B2" rx="11" ry="11" style="stroke:#181818;stroke-width:1.0;"/><path d="M162.9688,232.1152 Q162.3906,232.412 161.75,232.5527 Q161.1094,232.7089 160.4063,232.7089 Q157.9063,232.7089 156.5781,231.0683 Q155.2656,229.412 155.2656,226.287 Q155.2656,223.162 156.5781,221.5058 Q157.9063,219.8495 160.4063,219.8495 Q161.1094,219.8495 161.75,220.0058 Q162.4063,220.162 162.9688,220.4589 L162.9688,223.1777 Q162.3438,222.5995 161.75,222.3339 Q161.1563,222.0527 160.5313,222.0527 Q159.1875,222.0527 158.5,223.1308 Q157.8125,224.1933 157.8125,226.287 Q157.8125,228.3808 158.5,229.4589 Q159.1875,230.5214 160.5313,230.5214 Q161.1563,230.5214 161.75,230.2558 Q162.3438,229.9745 162.9688,229.3964 L162.9688,232.1152 Z " fill="#000000"/><text fill="#D9B8FF" font-family="Helvetica" font-size="17" lengthAdjust="spacing" textLength="233" x="179" y="232.3598">aws_ec2_network_interface</text></g><!--class aws_ec2_security_group--><g id="elem_aws_ec2_security_group"><rect codeLine="24" fill="#3D176E" height="39.7891" id="aws_ec2_security_group" rx="2.5" ry="2.5" style="stroke:#000D19;stroke-width:0.5;" width="245" x="221" y="7"/><ellipse cx="236" cy="26.8945" fill="#ADD1B2" rx="11" ry="11" style="stroke:#181818;stroke-width:1.0;"/><path d="M238.9688,32.5352 Q238.3906,32.832 237.75,32.9727 Q237.1094,33.1289 236.4063,33.1289 Q233.9063,33.1289 232.5781,31.4883 Q231.2656,29.832 231.2656,26.707 Q231.2656,23.582 232.5781,21.9258 Q233.9063,20.2695 236.4063,20.2695 Q237.1094,20.2695 237.75,20.4258 Q238.4063,20.582 238.9688,20.8789 L238.9688,23.5977 Q238.3438,23.0195 237.75,22.7539 Q237.1563,22.4727 236.5313,22.4727 Q235.1875,22.4727 234.5,23.5508 Q233.8125,24.6133 233.8125,26.707 Q233.8125,28.8008 234.5,29.8789 Q235.1875,30.9414 236.5313,30.9414 Q237.1563,30.9414 237.75,30.6758 Q238.3438,30.3945 238.9688,29.8164 L238.9688,32.5352 Z " fill="#000000"/><text fill="#D9B8FF" font-family="Helvetica" font-size="17" lengthAdjust="spacing" textLength="203" x="255" y="32.7798">aws_ec2_security_group</text></g><!--class aws_ec2_subnet--><g id="elem_aws_ec2_subnet"><rect codeLine="26" fill="#3D176E" height="39.7891" id="aws_ec2_subnet" rx="2.5" ry="2.5" style="stroke:#000D19;stroke-width:0.5;" width="179" x="7" y="7"/><ellipse cx="22" cy="26.8945" fill="#ADD1B2" rx="11" ry="11" style="stroke:#181818;stroke-width:1.0;"/><path d="M24.9688,32.5352 Q24.3906,32.832 23.75,32.9727 Q23.1094,33.1289 22.4063,33.1289 Q19.9063,33.1289 18.5781,31.4883 Q17.2656,29.832 17.2656,26.707 Q17.2656,23.582 18.5781,21.9258 Q19.9063,20.2695 22.4063,20.2695 Q23.1094,20.2695 23.75,20.4258 Q24.4063,20.582 24.9688,20.8789 L24.9688,23.5977 Q24.3438,23.0195 23.75,22.7539 Q23.1563,22.4727 22.5313,22.4727 Q21.1875,22.4727 20.5,23.5508 Q19.8125,24.6133 19.8125,26.707 Q19.8125,28.8008 20.5,29.8789 Q21.1875,30.9414 22.5313,30.9414 Q23.1563,30.9414 23.75,30.6758 Q24.3438,30.3945 24.9688,29.8164 L24.9688,32.5352 Z " fill="#000000"/><text fill="#D9B8FF" font-family="Helvetica" font-size="17" lengthAdjust="spacing" textLength="137" x="41" y="32.7798">aws_ec2_subnet</text></g><!--class aws_iam_role--><g id="elem_aws_iam_role"><rect codeLine="28" fill="#3D176E" height="39.7891" id="aws_iam_role" rx="2.5" ry="2.5" style="stroke:#000D19;stroke-width:0.5;" width="157" x="501" y="7"/><ellipse cx="516" cy="26.8945" fill="#ADD1B2" rx="11" ry="11" style="stroke:#181818;stroke-width:1.0;"/><path d="M518.9688,32.5352 Q518.3906,32.832 517.75,32.9727 Q517.1094,33.1289 516.4063,33.1289 Q513.9063,33.1289 512.5781,31.4883 Q511.2656,29.832 511.2656,26.707 Q511.2656,23.582 512.5781,21.9258 Q513.9063,20.2695 516.4063,20.2695 Q517.1094,20.2695 517.75,20.4258 Q518.4063,20.582 518.9688,20.8789 L518.9688,23.5977 Q518.3438,23.0195 517.75,22.7539 Q517.1563,22.4727 516.5313,22.4727 Q515.1875,22.4727 514.5,23.5508 Q513.8125,24.6133 513.8125,26.707 Q513.8125,28.8008 514.5,29.8789 Q515.1875,30.9414 516.5313,30.9414 Q517.1563,30.9414 517.75,30.6758 Q518.3438,30.3945 518.9688,29.8164 L518.9688,32.5352 Z " fill="#000000"/><text fill="#D9B8FF" font-family="Helvetica" font-size="17" lengthAdjust="spacing" textLength="115" x="535" y="32.7798">aws_iam_role</text></g><!--class aws_kms_key--><g id="elem_aws_kms_key"><rect codeLine="30" fill="#3D176E" height="39.7891" id="aws_kms_key" rx="2.5" ry="2.5" style="stroke:#000D19;stroke-width:0.5;" width="158" x="454.5" y="206.58"/><ellipse cx="469.5" cy="226.4745" fill="#ADD1B2" rx="11" ry="11" style="stroke:#181818;stroke-width:1.0;"/><path d="M472.4688,232.1152 Q471.8906,232.412 471.25,232.5527 Q470.6094,232.7089 469.9063,232.7089 Q467.4063,232.7089 466.0781,231.0683 Q464.7656,229.412 464.7656,226.287 Q464.7656,223.162 466.0781,221.5058 Q467.4063,219.8495 469.9063,219.8495 Q470.6094,219.8495 471.25,220.0058 Q471.9063,220.162 472.4688,220.4589 L472.4688,223.1777 Q471.8438,222.5995 471.25,222.3339 Q470.6563,222.0527 470.0313,222.0527 Q468.6875,222.0527 468,223.1308 Q467.3125,224.1933 467.3125,226.287 Q467.3125,228.3808 468,229.4589 Q468.6875,230.5214 470.0313,230.5214 Q470.6563,230.5214 471.25,230.2558 Q471.8438,229.9745 472.4688,229.3964 L472.4688,232.1152 Z " fill="#000000"/><text fill="#D9B8FF" font-family="Helvetica" font-size="17" lengthAdjust="spacing" textLength="116" x="488.5" y="232.3598">aws_kms_key</text></g><!--class aws_sagemaker_code_repository--><g id="elem_aws_sagemaker_code_repository"><rect codeLine="32" fill="#3D176E" height="39.7891" id="aws_sagemaker_code_repository" rx="2.5" ry="2.5" style="stroke:#000D19;stroke-width:0.5;" width="316" x="693.5" y="7"/><ellipse cx="708.5" cy="26.8945" fill="#ADD1B2" rx="11" ry="11" style="stroke:#181818;stroke-width:1.0;"/><path d="M711.4688,32.5352 Q710.8906,32.832 710.25,32.9727 Q709.6094,33.1289 708.9063,33.1289 Q706.4063,33.1289 705.0781,31.4883 Q703.7656,29.832 703.7656,26.707 Q703.7656,23.582 705.0781,21.9258 Q706.4063,20.2695 708.9063,20.2695 Q709.6094,20.2695 710.25,20.4258 Q710.9063,20.582 711.4688,20.8789 L711.4688,23.5977 Q710.8438,23.0195 710.25,22.7539 Q709.6563,22.4727 709.0313,22.4727 Q707.6875,22.4727 707,23.5508 Q706.3125,24.6133 706.3125,26.707 Q706.3125,28.8008 707,29.8789 Q707.6875,30.9414 709.0313,30.9414 Q709.6563,30.9414 710.25,30.6758 Q710.8438,30.3945 711.4688,29.8164 L711.4688,32.5352 Z " fill="#000000"/><text fill="#D9B8FF" font-family="Helvetica" font-size="17" lengthAdjust="spacing" textLength="274" x="727.5" y="32.7798">aws_sagemaker_code_repository</text></g><!--class aws_sagemaker_notebook--><g id="elem_aws_sagemaker_notebook"><rect codeLine="34" fill="#3D176E" height="39.7891" id="aws_sagemaker_notebook" rx="2.5" ry="2.5" style="stroke:#000D19;stroke-width:0.5;" width="263" x="386" y="106.79"/><ellipse cx="401" cy="126.6845" fill="#ADD1B2" rx="11" ry="11" style="stroke:#181818;stroke-width:1.0;"/><path d="M403.9688,132.3252 Q403.3906,132.622 402.75,132.7627 Q402.1094,132.9189 401.4063,132.9189 Q398.9063,132.9189 397.5781,131.2783 Q396.2656,129.622 396.2656,126.497 Q396.2656,123.372 397.5781,121.7158 Q398.9063,120.0595 401.4063,120.0595 Q402.1094,120.0595 402.75,120.2158 Q403.4063,120.372 403.9688,120.6689 L403.9688,123.3877 Q403.3438,122.8095 402.75,122.5439 Q402.1563,122.2627 401.5313,122.2627 Q400.1875,122.2627 399.5,123.3408 Q398.8125,124.4033 398.8125,126.497 Q398.8125,128.5908 399.5,129.6689 Q400.1875,130.7314 401.5313,130.7314 Q402.1563,130.7314 402.75,130.4658 Q403.3438,130.1845 403.9688,129.6064 L403.9688,132.3252 Z " fill="#000000"/><text fill="#D9B8FF" font-family="Helvetica" font-size="17" lengthAdjust="spacing" textLength="221" x="420" y="132.5698">aws_sagemaker_notebook</text></g><!--link aws_ec2_security_group to aws_ec2_network_interface--><g id="link_aws_ec2_security_group_aws_ec2_network_interface"><path codeLine="36" d="M337.54,47.2 C325.88,84.97 301.9414,162.5275 290.2514,200.3575 " fill="none" id="aws_ec2_security_group-to-aws_ec2_network_interface" style="stroke:#1A83AF;stroke-width:2.0;"/><polygon fill="#1A83AF" points="288.48,206.09,294.9588,198.6721,289.9562,201.3129,287.3155,196.3102,288.48,206.09" style="stroke:#1A83AF;stroke-width:2.0;"/></g><!--link aws_ec2_security_group to aws_sagemaker_notebook--><g id="link_aws_ec2_security_group_aws_sagemaker_notebook"><path codeLine="37" d="M377.88,47.22 C408.38,64.36 447.4802,86.3291 477.9602,103.4691 " fill="none" id="aws_ec2_security_group-to-aws_sagemaker_notebook" style="stroke:#1A83AF;stroke-width:2.0;"/><polygon fill="#1A83AF" points="483.19,106.41,477.3059,98.5121,478.8318,103.9592,473.3847,105.4852,483.19,106.41" style="stroke:#1A83AF;stroke-width:2.0;"/></g><!--link aws_ec2_subnet to aws_ec2_network_interface--><g id="link_aws_ec2_subnet_aws_ec2_network_interface"><path codeLine="38" d="M114.67,47.2 C150.23,84.97 224.5275,163.8911 260.1375,201.7211 " fill="none" id="aws_ec2_subnet-to-aws_ec2_network_interface" style="stroke:#1A83AF;stroke-width:2.0;"/><polygon fill="#1A83AF" points="264.25,206.09,260.9938,196.795,260.8229,202.4493,255.1686,202.2783,264.25,206.09" style="stroke:#1A83AF;stroke-width:2.0;"/></g><!--link aws_ec2_subnet to aws_sagemaker_notebook--><g id="link_aws_ec2_subnet_aws_sagemaker_notebook"><path codeLine="39" d="M179.93,47.28 C253.64,64.4 354.7256,87.8826 428.3956,104.9926 " fill="none" id="aws_ec2_subnet-to-aws_sagemaker_notebook" style="stroke:#1A83AF;stroke-width:2.0;"/><polygon fill="#1A83AF" points="434.24,106.35,426.3783,100.4176,429.3696,105.2188,424.5684,108.2102,434.24,106.35" style="stroke:#1A83AF;stroke-width:2.0;"/></g><!--link aws_iam_role to aws_sagemaker_notebook--><g id="link_aws_iam_role_aws_sagemaker_notebook"><path codeLine="40" d="M567.25,47.22 C556.38,64.36 543.8034,84.203 532.9334,101.343 " fill="none" id="aws_iam_role-to-aws_sagemaker_notebook" style="stroke:#1A83AF;stroke-width:2.0;"/><polygon fill="#1A83AF" points="529.72,106.41,537.9181,100.9518,532.3978,102.1875,531.1621,96.6673,529.72,106.41" style="stroke:#1A83AF;stroke-width:2.0;"/></g><!--link aws_sagemaker_code_repository to aws_sagemaker_notebook--><g id="link_aws_sagemaker_code_repository_aws_sagemaker_notebook"><path codeLine="41" d="M785.51,47.22 C727.05,64.33 647.8982,87.5039 589.3982,104.6339 " fill="none" id="aws_sagemaker_code_repository-to-aws_sagemaker_notebook" style="stroke:#1A83AF;stroke-width:2.0;"/><polygon fill="#1A83AF" points="583.64,106.32,593.4014,107.6296,588.4385,104.9149,591.1532,99.952,583.64,106.32" style="stroke:#1A83AF;stroke-width:2.0;"/></g><!--link aws_sagemaker_notebook to aws_ec2_network_interface--><g id="link_aws_sagemaker_notebook_aws_ec2_network_interface"><path codeLine="42" d="M471.07,147.01 C429.87,164.15 375.5391,186.7539 334.3691,203.8939 " fill="none" id="aws_sagemaker_notebook-to-aws_ec2_network_interface" style="stroke:#1A83AF;stroke-width:2.0;"/><polygon fill="#1A83AF" points="328.83,206.2,338.6761,206.4337,333.4459,204.2783,335.6013,199.0481,328.83,206.2" style="stroke:#1A83AF;stroke-width:2.0;"/></g><!--link aws_sagemaker_notebook to aws_kms_key--><g id="link_aws_sagemaker_notebook_aws_kms_key"><path codeLine="43" d="M520.66,147.01 C523.47,164.15 526.5693,183.139 529.3793,200.279 " fill="none" id="aws_sagemaker_notebook-to-aws_kms_key" style="stroke:#1A83AF;stroke-width:2.0;"/><polygon fill="#1A83AF" points="530.35,206.2,532.8412,196.6714,529.5411,201.2659,524.9466,197.9657,530.35,206.2" style="stroke:#1A83AF;stroke-width:2.0;"/></g><!--SRC=[bP9VQy8m5CNV_HG1dmMhREhBm0colSYOUnkZfCcDXZP9kKbNkh7llbQTTAdnpqDVSd_td7CFtKeE15JkAg909O2sPrEfSufKaJcYAHScCqZwGb0ndlZ3fT7k8h2Y2iWJP9_W9AC-yRQLBDLWBHcrHe-KfHiqXUPxUOTKste4shMeHKQjdJk7CYaSjCBmMJ8LmYTzqVwOHvDxw606EU016Gw7F9hvo4MhitSVYRNy0XArIriP1vsO7OiTTJPbGxH2TWxzcmSplb3EfTwGkzRRwpuJQi1_x-ijvQPiQ44psxQn3X2Cgt9OTAw2sPIBoKduEGIpfZb2Ini36yKQN6amZQMkDmLbGBvxFnvZWHKeNHKtSlafe4Xg7MyWgOhHPBvWgkeFAk_LqWqecWB6p7284N9ZfJCOvdJTVc9CkWC2IGVl_MW-7S-N7uE7yCLNRtVDUru3jne6jW96nqQlNGYtUhl2iUyRRhnc-_0__080]--></g></svg>

<svg xmlns="http://www.w3.org/2000/svg" width="1016" height="252" viewBox="0 0 1016 252"><rect width="275" height="39.789" x="145" y="206.58" fill="#3D176E" rx="2.5" ry="2.5" style="stroke:#000d19;stroke-width:.5"/><circle cx="160" cy="226.475" r="11" fill="#ADD1B2" style="stroke:#181818;stroke-width:1"/><path d="M162.969 232.115q-.578.297-1.219.438-.64.156-1.344.156-2.5 0-3.828-1.64-1.312-1.657-1.312-4.782t1.312-4.781q1.328-1.656 3.828-1.656.703 0 1.344.156.656.156 1.219.453v2.719q-.625-.578-1.219-.844-.594-.281-1.219-.281-1.344 0-2.031 1.078-.687 1.062-.687 3.156t.687 3.172q.688 1.062 2.031 1.062.625 0 1.219-.265.594-.281 1.219-.86z"/><text x="179" y="232.36" fill="#D9B8FF" font-family="Helvetica" font-size="17" textLength="233">aws_ec2_network_interface</text><rect width="245" height="39.789" x="221" y="7" fill="#3D176E" rx="2.5" ry="2.5" style="stroke:#000d19;stroke-width:.5"/><circle cx="236" cy="26.895" r="11" fill="#ADD1B2" style="stroke:#181818;stroke-width:1"/><path d="M238.969 32.535q-.578.297-1.219.438-.64.156-1.344.156-2.5 0-3.828-1.64-1.312-1.657-1.312-4.782t1.312-4.781q1.328-1.656 3.828-1.656.703 0 1.344.156.656.156 1.219.453v2.719q-.625-.578-1.219-.844-.594-.281-1.219-.281-1.344 0-2.031 1.078-.687 1.062-.687 3.156t.687 3.172q.688 1.062 2.031 1.062.625 0 1.219-.265.594-.281 1.219-.86z"/><text x="255" y="32.78" fill="#D9B8FF" font-family="Helvetica" font-size="17" textLength="203">aws_ec2_security_group</text><rect width="179" height="39.789" x="7" y="7" fill="#3D176E" rx="2.5" ry="2.5" style="stroke:#000d19;stroke-width:.5"/><circle cx="22" cy="26.895" r="11" fill="#ADD1B2" style="stroke:#181818;stroke-width:1"/><path d="M24.969 32.535q-.578.297-1.219.438-.64.156-1.344.156-2.5 0-3.828-1.64-1.312-1.657-1.312-4.782t1.312-4.781q1.328-1.656 3.828-1.656.703 0 1.344.156.656.156 1.219.453v2.719q-.625-.578-1.219-.844-.594-.281-1.219-.281-1.343 0-2.031 1.078-.687 1.062-.687 3.156t.687 3.172q.688 1.062 2.031 1.062.625 0 1.219-.265.594-.281 1.219-.86z"/><text x="41" y="32.78" fill="#D9B8FF" font-family="Helvetica" font-size="17" textLength="137">aws_ec2_subnet</text><rect width="157" height="39.789" x="501" y="7" fill="#3D176E" rx="2.5" ry="2.5" style="stroke:#000d19;stroke-width:.5"/><circle cx="516" cy="26.895" r="11" fill="#ADD1B2" style="stroke:#181818;stroke-width:1"/><path d="M518.969 32.535q-.578.297-1.219.438-.64.156-1.344.156-2.5 0-3.828-1.64-1.312-1.657-1.312-4.782t1.312-4.781q1.328-1.656 3.828-1.656.703 0 1.344.156.656.156 1.219.453v2.719q-.625-.578-1.219-.844-.594-.281-1.219-.281-1.343 0-2.031 1.078-.687 1.062-.687 3.156t.687 3.172q.688 1.062 2.031 1.062.625 0 1.219-.265.594-.281 1.219-.86z"/><text x="535" y="32.78" fill="#D9B8FF" font-family="Helvetica" font-size="17" textLength="115">aws_iam_role</text><rect width="158" height="39.789" x="454.5" y="206.58" fill="#3D176E" rx="2.5" ry="2.5" style="stroke:#000d19;stroke-width:.5"/><circle cx="469.5" cy="226.475" r="11" fill="#ADD1B2" style="stroke:#181818;stroke-width:1"/><path d="M472.469 232.115q-.578.297-1.219.438-.64.156-1.344.156-2.5 0-3.828-1.64-1.312-1.657-1.312-4.782t1.312-4.781q1.328-1.656 3.828-1.656.703 0 1.344.156.656.156 1.219.453v2.719q-.625-.578-1.219-.844-.594-.281-1.219-.281-1.344 0-2.031 1.078-.687 1.062-.687 3.156t.687 3.172q.688 1.062 2.031 1.062.625 0 1.219-.265.594-.281 1.219-.86z"/><text x="488.5" y="232.36" fill="#D9B8FF" font-family="Helvetica" font-size="17" textLength="116">aws_kms_key</text><rect width="316" height="39.789" x="693.5" y="7" fill="#3D176E" rx="2.5" ry="2.5" style="stroke:#000d19;stroke-width:.5"/><circle cx="708.5" cy="26.895" r="11" fill="#ADD1B2" style="stroke:#181818;stroke-width:1"/><path d="M711.469 32.535q-.578.297-1.219.438-.64.156-1.344.156-2.5 0-3.828-1.64-1.312-1.657-1.312-4.782t1.312-4.781q1.328-1.656 3.828-1.656.703 0 1.344.156.656.156 1.219.453v2.719q-.625-.578-1.219-.844-.594-.281-1.219-.281-1.343 0-2.031 1.078-.687 1.062-.687 3.156t.687 3.172q.688 1.062 2.031 1.062.625 0 1.219-.265.594-.281 1.219-.86z"/><text x="727.5" y="32.78" fill="#D9B8FF" font-family="Helvetica" font-size="17" textLength="274">aws_sagemaker_code_repository</text><rect width="263" height="39.789" x="386" y="106.79" fill="#3D176E" rx="2.5" ry="2.5" style="stroke:#000d19;stroke-width:.5"/><circle cx="401" cy="126.684" r="11" fill="#ADD1B2" style="stroke:#181818;stroke-width:1"/><path d="M403.969 132.325q-.578.297-1.219.438-.64.156-1.344.156-2.5 0-3.828-1.64-1.312-1.657-1.312-4.782t1.312-4.781q1.328-1.656 3.828-1.656.703 0 1.344.156.656.156 1.219.453v2.719q-.625-.579-1.219-.844-.594-.281-1.219-.281-1.344 0-2.031 1.078-.687 1.062-.687 3.156t.687 3.172q.688 1.062 2.031 1.062.625 0 1.219-.265.594-.281 1.219-.86z"/><text x="420" y="132.57" fill="#D9B8FF" font-family="Helvetica" font-size="17" textLength="221">aws_sagemaker_notebook</text><path fill="none" d="M337.54 47.2c-11.66 37.77-35.599 115.328-47.289 153.157" style="stroke:#1a83af;stroke-width:2"/><path fill="#1A83AF" d="m288.48 206.09 6.479-7.418-5.003 2.64-2.64-5.002z" style="stroke:#1a83af;stroke-width:2"/><path fill="none" d="M377.88 47.22c30.5 17.14 69.6 39.11 100.08 56.25" style="stroke:#1a83af;stroke-width:2"/><path fill="#1A83AF" d="m483.19 106.41-5.884-7.898 1.526 5.447-5.447 1.526z" style="stroke:#1a83af;stroke-width:2"/><path fill="none" d="M114.67 47.2c35.56 37.77 109.858 116.691 145.467 154.521" style="stroke:#1a83af;stroke-width:2"/><path fill="#1A83AF" d="m264.25 206.09-3.256-9.295-.171 5.654-5.654-.17z" style="stroke:#1a83af;stroke-width:2"/><path fill="none" d="M179.93 47.28c73.71 17.12 174.796 40.603 248.466 57.713" style="stroke:#1a83af;stroke-width:2"/><path fill="#1A83AF" d="m434.24 106.35-7.862-5.932 2.992 4.8-4.802 2.992z" style="stroke:#1a83af;stroke-width:2"/><path fill="none" d="M567.25 47.22c-10.87 17.14-23.447 36.983-34.317 54.123" style="stroke:#1a83af;stroke-width:2"/><path fill="#1A83AF" d="m529.72 106.41 8.198-5.458-5.52 1.236-1.236-5.52z" style="stroke:#1a83af;stroke-width:2"/><path fill="none" d="M785.51 47.22c-58.46 17.11-137.612 40.284-196.112 57.414" style="stroke:#1a83af;stroke-width:2"/><path fill="#1A83AF" d="m583.64 106.32 9.761 1.31-4.962-2.715 2.714-4.963z" style="stroke:#1a83af;stroke-width:2"/><path fill="none" d="M471.07 147.01c-41.2 17.14-95.53 39.744-136.7 56.884" style="stroke:#1a83af;stroke-width:2"/><path fill="#1A83AF" d="m328.83 206.2 9.846.234-5.23-2.156 2.155-5.23z" style="stroke:#1a83af;stroke-width:2"/><path fill="none" d="M520.66 147.01c2.81 17.14 5.91 36.129 8.72 53.269" style="stroke:#1a83af;stroke-width:2"/><path fill="#1A83AF" d="m530.35 206.2 2.491-9.529-3.3 4.595-4.594-3.3z" style="stroke:#1a83af;stroke-width:2"/></svg>
